Numix-Circle/48x48/apps/grass.svg

<?xml version="1.0" encoding="UTF-8" standalone="no"?>
<svg
   xmlns:dc="http://purl.org/dc/elements/1.1/"
   xmlns:cc="http://creativecommons.org/ns#"
   xmlns:rdf="http://www.w3.org/1999/02/22-rdf-syntax-ns#"
   xmlns:svg="http://www.w3.org/2000/svg"
   xmlns="http://www.w3.org/2000/svg"
   xmlns:xlink="http://www.w3.org/1999/xlink"
   xmlns:sodipodi="http://sodipodi.sourceforge.net/DTD/sodipodi-0.dtd"
   xmlns:inkscape="http://www.inkscape.org/namespaces/inkscape"
   viewBox="0 0 48 48"
   id="svg2"
   version="1.1"
   inkscape:version="0.91 r13725"
   sodipodi:docname="grass2.svg">
  <metadata
     id="metadata61">
    <rdf:RDF>
      <cc:Work
         rdf:about="">
        <dc:format>image/svg+xml</dc:format>
        <dc:type
           rdf:resource="http://purl.org/dc/dcmitype/StillImage" />
        <dc:title />
      </cc:Work>
    </rdf:RDF>
  </metadata>
  <sodipodi:namedview
     pagecolor="#ffffff"
     bordercolor="#666666"
     borderopacity="1"
     objecttolerance="10"
     gridtolerance="10"
     guidetolerance="10"
     inkscape:pageopacity="0"
     inkscape:pageshadow="2"
     inkscape:window-width="1366"
     inkscape:window-height="718"
     id="namedview59"
     showgrid="false"
     inkscape:zoom="16"
     inkscape:cx="23.025391"
     inkscape:cy="19.631208"
     inkscape:window-x="0"
     inkscape:window-y="25"
     inkscape:window-maximized="1"
     inkscape:current-layer="svg2">
    <inkscape:grid
       type="xygrid"
       id="grid4236" />
  </sodipodi:namedview>
  <defs
     id="defs4">
    <linearGradient
       inkscape:collect="always"
       id="linearGradient4246">
      <stop
         style="stop-color:#87ef79;stop-opacity:1"
         offset="0"
         id="stop4248" />
      <stop
         style="stop-color:#97f18b;stop-opacity:1"
         offset="1"
         id="stop4250" />
    </linearGradient>
    <linearGradient
       inkscape:collect="always"
       xlink:href="#linearGradient4246"
       id="linearGradient4252"
       x1="-47"
       y1="1"
       x2="-1"
       y2="1"
       gradientUnits="userSpaceOnUse" />
  </defs>
  <g
     id="g21">
    <path
       d="m 36.31 5 c 5.859 4.062 9.688 10.831 9.688 18.5 c 0 12.426 -10.07 22.5 -22.5 22.5 c -7.669 0 -14.438 -3.828 -18.5 -9.688 c 1.037 1.822 2.306 3.499 3.781 4.969 c 4.085 3.712 9.514 5.969 15.469 5.969 c 12.703 0 23 -10.298 23 -23 c 0 -5.954 -2.256 -11.384 -5.969 -15.469 c -1.469 -1.475 -3.147 -2.744 -4.969 -3.781 z m 4.969 3.781 c 3.854 4.113 6.219 9.637 6.219 15.719 c 0 12.703 -10.297 23 -23 23 c -6.081 0 -11.606 -2.364 -15.719 -6.219 c 4.16 4.144 9.883 6.719 16.219 6.719 c 12.703 0 23 -10.298 23 -23 c 0 -6.335 -2.575 -12.06 -6.719 -16.219 z"
       opacity="0.05"
       id="path23" />
    <path
       d="m 41.28 8.781 c 3.712 4.085 5.969 9.514 5.969 15.469 c 0 12.703 -10.297 23 -23 23 c -5.954 0 -11.384 -2.256 -15.469 -5.969 c 4.113 3.854 9.637 6.219 15.719 6.219 c 12.703 0 23 -10.298 23 -23 c 0 -6.081 -2.364 -11.606 -6.219 -15.719 z"
       opacity="0.1"
       id="path25" />
    <path
       d="m 31.25 2.375 c 8.615 3.154 14.75 11.417 14.75 21.13 c 0 12.426 -10.07 22.5 -22.5 22.5 c -9.708 0 -17.971 -6.135 -21.12 -14.75 a 23 23 0 0 0 44.875 -7 a 23 23 0 0 0 -16 -21.875 z"
       opacity="0.2"
       id="path27" />
  </g>
  <g
     id="g33" />
  <circle
     style="opacity:1;fill:url(#linearGradient4252);fill-opacity:1;fill-rule:nonzero;stroke:none;stroke-width:30.89999962;stroke-linejoin:round;stroke-miterlimit:4;stroke-dasharray:none;stroke-opacity:1"
     id="path4222"
     cx="-24"
     cy="24"
     r="23"
     transform="matrix(0,-1,1,0,0,0)" />
  <g
     id="g55">
    <path
       d="m 40.03 7.531 c 3.712 4.084 5.969 9.514 5.969 15.469 0 12.703 -10.297 23 -23 23 c -5.954 0 -11.384 -2.256 -15.469 -5.969 4.178 4.291 10.01 6.969 16.469 6.969 c 12.703 0 23 -10.298 23 -23 0 -6.462 -2.677 -12.291 -6.969 -16.469 z"
       opacity="0.1"
       id="path57" />
  </g>
  <g
     id="g4392">
    <path
       style="fill:#000000;fill-opacity:0.09803922"
       d="m 18.173828,12 c 2.374517,4.538588 4.057568,8.968729 5.035156,13.523438 C 20.288402,20.288621 16.425201,19.187324 12,19.074219 c 6.663727,0.818784 10.450253,5.775712 11.941406,12.140625 -0.0036,0.06753 -0.0103,0.127274 -0.01367,0.195312 -1.485808,-6.698247 -8.396134,-9.238435 -11.923828,-8.113281 6.403418,1.080686 9.026398,4.3263 10.320313,7.728516 -0.323506,-0.326427 -0.657812,-0.593387 -1,-0.820313 -1.863789,-2.806833 -3.936385,-3.703699 -7.386719,-3.171875 1.867652,0.373278 3.363548,1.162984 4.570312,2.207031 -1.872023,-0.167757 -3.80415,0.365941 -5.507814,0.705078 3.696363,0.703983 6.252546,0.987629 7.898438,2.232422 1.076933,1.840392 1.738619,3.914466 2.18164,5.822266 1.748047,0 3.496094,0 5.244141,0 0.09382,-1.437489 0.238397,-2.781312 0.425781,-4.080078 1.624167,-2.690765 4.381527,-4.888782 9.25,-5.144531 -3.626553,-0.48838 -6.344203,-0.339748 -8.564453,1.699218 0.150352,-0.54005 0.320405,-1.067778 0.511719,-1.582031 1.713749,-1.854392 4.027867,-2.849815 7.083984,-1.814453 C 35.0816,25.79051 33.11357,25.485456 31.345703,26.011719 32.613239,23.96415 34.412022,22.142095 37,20.509766 c -3.850854,0.706304 -6.468025,2.830181 -8.378906,7.140625 -1.299533,1.138932 -2.318328,3.280758 -2.646487,4.226562 C 27.354082,24.741603 30.807513,19.00179 37,18 32.266879,18.086192 28.463981,19.80602 25.751953,27.572266 26.398606,20.443179 28.963681,16.553208 33.220703,12 29.652811,14.364752 26.158296,17.300788 24.638672,25.171875 22.672283,17.3251 20.2098,14.455032 18.173828,12 Z m -6.169922,11.296875 c -0.0013,-2.24e-4 -0.0026,2.23e-4 -0.0039,0 l 0,0.002 c 0.0013,-4.17e-4 0.0026,-0.0015 0.0039,-0.002 z"
       id="path3351"
       inkscape:connector-curvature="0"
       sodipodi:nodetypes="cccccccccccccccccccccccccccccccc" />
    <path
       d="M 11,22.298113 C 14.526494,21.16983 21.440976,23.709376 22.927334,30.410101 23.55885,17.673246 27.836181,13.906551 32.221529,11 26.949122,16.639239 24.26716,21.255325 24.618006,32.276317 26.337336,25.581044 31.249826,22.920354 36.03125,26.078168 28.972427,23.686755 25.857988,32.108713 25.00783,37 l -2.0172,0 C 21.865407,32.573037 22.124669,24.173064 11.000892,22.297749 Z"
       inkscape:connector-curvature="0"
       style="fill:#145c14;fill-opacity:1"
       sodipodi:nodetypes="ccccccccc"
       id="rect4078" />
    <path
       d="m 12,28.946247 c 3.627591,-0.722122 8.293443,-2.367263 11.20135,3.888846 C 22.992245,25.2015 20.961272,18.239043 17.17392,11 c 2.718185,3.277663 6.197983,7.292913 8.240178,22.90699 C 27.418481,24.549436 30.408491,20.535472 36,19.509906 29.193509,23.803001 27.81986,29.398415 27.323745,37 l -5.096008,0 C 21.711158,30.09102 18.741303,30.230146 12,28.946247 Z"
       inkscape:connector-curvature="0"
       style="fill:#20b420;fill-opacity:1"
       sodipodi:nodetypes="cccccccc"
       id="rect4083" />
    <path
       d="M 11.00057,18.073865 C 19.902248,19.16763 23.669796,27.644933 23.689757,37 l 2.389701,0 C 27.195964,32.800093 29.780566,28.155352 37,27.776102 31.586878,27.047129 28.192882,27.713137 25.467082,34.014506 22.564252,20.416404 17.359152,18.236401 11,18.073865 Z"
       inkscape:connector-curvature="0"
       style="fill:#479812;fill-opacity:1"
       sodipodi:nodetypes="ccccccc"
       id="path4098" />
    <path
       id="path3562"
       sodipodi:nodetypes="ccccccc"
       style="fill:#397113;fill-opacity:1"
       inkscape:connector-curvature="0"
       d="M 35.999474,17 C 28.10571,18.277014 24.648174,27.242892 24.286378,37 L 22.0805,37 c -1.030621,-4.438209 -3.228907,-9.783992 -9.143,-10.96601 4.996359,-0.770124 7.103319,1.449661 9.871449,8.138032 C 25.488485,19.802366 30.000206,17.109258 36,17 Z" />
  </g>
</svg>

<svg xmlns="http://www.w3.org/2000/svg" viewBox="0 0 48 48">
 <defs>
  <linearGradient id="linearGradient4252" x1="-47" x2="-1" gradientUnits="userSpaceOnUse">
   <stop style="stop-color:#87ef79;stop-opacity:1"/>
   <stop offset="1" style="stop-color:#97f18b;stop-opacity:1"/>
  </linearGradient>
 </defs>
 <g>
  <path d="m 36.31 5 c 5.859 4.062 9.688 10.831 9.688 18.5 c 0 12.426 -10.07 22.5 -22.5 22.5 c -7.669 0 -14.438 -3.828 -18.5 -9.688 c 1.037 1.822 2.306 3.499 3.781 4.969 c 4.085 3.712 9.514 5.969 15.469 5.969 c 12.703 0 23 -10.298 23 -23 c 0 -5.954 -2.256 -11.384 -5.969 -15.469 c -1.469 -1.475 -3.147 -2.744 -4.969 -3.781 z m 4.969 3.781 c 3.854 4.113 6.219 9.637 6.219 15.719 c 0 12.703 -10.297 23 -23 23 c -6.081 0 -11.606 -2.364 -15.719 -6.219 c 4.16 4.144 9.883 6.719 16.219 6.719 c 12.703 0 23 -10.298 23 -23 c 0 -6.335 -2.575 -12.06 -6.719 -16.219 z" style="opacity:0.05"/>
  <path d="m 41.28 8.781 c 3.712 4.085 5.969 9.514 5.969 15.469 c 0 12.703 -10.297 23 -23 23 c -5.954 0 -11.384 -2.256 -15.469 -5.969 c 4.113 3.854 9.637 6.219 15.719 6.219 c 12.703 0 23 -10.298 23 -23 c 0 -6.081 -2.364 -11.606 -6.219 -15.719 z" style="opacity:0.1"/>
  <path d="m 31.25 2.375 c 8.615 3.154 14.75 11.417 14.75 21.13 c 0 12.426 -10.07 22.5 -22.5 22.5 c -9.708 0 -17.971 -6.135 -21.12 -14.75 a 23 23 0 0 0 44.875 -7 a 23 23 0 0 0 -16 -21.875 z" style="opacity:0.2"/>
 </g>
 <circle cx="-24" cy="24" r="23" transform="matrix(0,-1,1,0,0,0)" style="fill:url(#linearGradient4252);opacity:1;fill-opacity:1;stroke:none;fill-rule:nonzero"/>
 <g>
  <path d="m 40.03 7.531 c 3.712 4.084 5.969 9.514 5.969 15.469 0 12.703 -10.297 23 -23 23 c -5.954 0 -11.384 -2.256 -15.469 -5.969 4.178 4.291 10.01 6.969 16.469 6.969 c 12.703 0 23 -10.298 23 -23 0 -6.462 -2.677 -12.291 -6.969 -16.469 z" style="opacity:0.1"/>
 </g>
 <g>
  <path d="m 18.17 12 c 2.375 4.539 4.058 8.969 5.04 13.523 c -2.921 -5.235 -6.784 -6.336 -11.209 -6.449 c 6.664 0.819 10.45 5.776 11.941 12.141 -0.004 0.068 -0.0001 0.127 -0.014 0.195 -1.486 -6.698 -8.396 -9.238 -11.924 -8.113 6.403 1.081 9.03 4.326 10.32 7.729 -0.324 -0.326 -0.658 -0.593 -1 -0.82 -1.864 -2.807 -3.936 -3.704 -7.387 -3.172 1.868 0.373 3.364 1.163 4.57 2.207 -1.872 -0.168 -3.804 0.366 -5.508 0.705 3.696 0.704 6.253 0.988 7.898 2.232 1.077 1.84 1.739 3.914 2.182 5.822 1.748 0 3.496 0 5.244 0 0.094 -1.437 0.238 -2.781 0.426 -4.08 1.624 -2.691 4.382 -4.889 9.25 -5.145 -3.627 -0.488 -6.344 -0.34 -8.564 1.699 0.15 -0.54 0.32 -1.068 0.512 -1.582 1.714 -1.854 4.03 -2.85 7.084 -1.814 c -1.95 -1.288 -3.918 -1.593 -5.686 -1.066 1.268 -2.048 3.066 -3.87 5.654 -5.502 c -3.851 0.706 -6.468 2.83 -8.379 7.141 -1.3 1.139 -2.318 3.281 -2.646 4.227 c 1.379 -7.135 4.833 -12.875 11.03 -13.877 -4.733 0.086 -8.536 1.806 -11.248 9.572 0.647 -7.129 3.212 -11.02 7.469 -15.572 -3.568 2.365 -7.06 5.301 -8.582 13.172 -1.966 -7.847 -4.429 -10.717 -6.465 -13.172 m -6.17 11.297 c 0 0 -0.003 0 -0.004 0 l 0 0.002 c 0 0 0.003 -0.002 0.004 -0.002 z" style="fill:#000;fill-opacity:0.098"/>
  <path d="m 11 22.298 c 3.526 -1.128 10.441 1.411 11.927 8.112 0.632 -12.737 4.909 -16.504 9.294 -19.41 -5.272 5.639 -7.954 10.255 -7.604 21.276 1.719 -6.695 6.632 -9.356 11.413 -6.198 -7.06 -2.391 -10.173 6.03 -11.02 10.922 l -2.02 0 c -1.125 -4.427 -0.866 -12.827 -11.99 -14.702" style="fill:#145c14;fill-opacity:1"/>
  <path d="m 12 28.946 c 3.628 -0.722 8.293 -2.367 11.201 3.889 c -0.209 -7.634 -2.24 -14.596 -6.03 -21.835 c 2.718 3.278 6.198 7.293 8.24 22.907 c 2 -9.358 4.994 -13.372 10.586 -14.397 -6.806 4.293 -8.18 9.889 -8.676 17.49 l -5.096 0 c -0.517 -6.909 -3.486 -6.77 -10.228 -8.05" style="fill:#20b420;fill-opacity:1"/>
  <path d="m 11 18.07 c 8.902 1.094 12.669 9.571 12.689 18.926 l 2.39 0 c 1.117 -4.2 3.701 -8.845 10.921 -9.224 -5.413 -0.729 -8.807 -0.063 -11.533 6.238 -2.903 -13.598 -8.108 -15.778 -14.467 -15.941" style="fill:#479812;fill-opacity:1"/>
  <path d="m 35.999 17 c -7.894 1.277 -11.351 10.243 -11.713 20 l -2.206 0 c -1.031 -4.438 -3.229 -9.784 -9.143 -10.966 4.996 -0.77 7.103 1.45 9.871 8.138 c 2.68 -14.37 7.191 -17.06 13.191 -17.17" style="fill:#397113;fill-opacity:1"/>
 </g>
</svg>
